21_telescope/MirrorCell.svg

<?xml version="1.0" encoding="UTF-8" standalone="no"?>
<svg
   version="1.2"
   width="297mm"
   height="420mm"
   viewBox="0 0 29700 42000"
   preserveAspectRatio="xMidYMid"
   fill-rule="evenodd"
   stroke-width="28.222"
   stroke-linejoin="round"
   xml:space="preserve"
   id="svg76"
   sodipodi:docname="MirrorCell.svg"
   inkscape:version="1.1.2 (0a00cf5339, 2022-02-04)"
   xmlns:inkscape="http://www.inkscape.org/namespaces/inkscape"
   xmlns:sodipodi="http://sodipodi.sourceforge.net/DTD/sodipodi-0.dtd"
   xmlns="http://www.w3.org/2000/svg"
   xmlns:svg="http://www.w3.org/2000/svg"
   xmlns:ooo="http://xml.openoffice.org/svg/export"><sodipodi:namedview
   id="namedview78"
   pagecolor="#ffffff"
   bordercolor="#cccccc"
   borderopacity="1"
   inkscape:pageshadow="0"
   inkscape:pageopacity="1"
   inkscape:pagecheckerboard="0"
   inkscape:document-units="mm"
   showgrid="false"
   inkscape:zoom="0.53105655"
   inkscape:cx="460.40295"
   inkscape:cy="278.68972"
   inkscape:window-width="1920"
   inkscape:window-height="1022"
   inkscape:window-x="0"
   inkscape:window-y="0"
   inkscape:window-maximized="1"
   inkscape:current-layer="svg76" />
 <defs
   class="ClipPathGroup"
   id="defs8">
  <clipPath
   id="presentation_clip_path"
   clipPathUnits="userSpaceOnUse">
   <rect
   x="0"
   y="0"
   width="29700"
   height="42000"
   id="rect2" />
  </clipPath>
  <clipPath
   id="presentation_clip_path_shrink"
   clipPathUnits="userSpaceOnUse">
   <rect
   x="29"
   y="42"
   width="29641"
   height="41916"
   id="rect5" />
  </clipPath>
 </defs>
 <defs
   class="TextShapeIndex"
   id="defs12">
  <g
   ooo:slide="id1"
   ooo:id-list="id3"
   id="g10" />
 </defs>
 <defs
   class="EmbeddedBulletChars"
   id="defs44">
  <g
   id="bullet-char-template-57356"
   transform="scale(0.00048828125,-0.00048828125)">
   <path
   d="M 580,1141 L 1163,571 580,0 -4,571 580,1141 Z"
   id="path14" />
  </g>
  <g
   id="bullet-char-template-57354"
   transform="scale(0.00048828125,-0.00048828125)">
   <path
   d="M 8,1128 L 1137,1128 1137,0 8,0 8,1128 Z"
   id="path17" />
  </g>
  <g
   id="bullet-char-template-10146"
   transform="scale(0.00048828125,-0.00048828125)">
   <path
   d="M 174,0 L 602,739 174,1481 1456,739 174,0 Z M 1358,739 L 309,1346 659,739 1358,739 Z"
   id="path20" />
  </g>
  <g
   id="bullet-char-template-10132"
   transform="scale(0.00048828125,-0.00048828125)">
   <path
   d="M 2015,739 L 1276,0 717,0 1260,543 174,543 174,936 1260,936 717,1481 1274,1481 2015,739 Z"
   id="path23" />
  </g>
  <g
   id="bullet-char-template-10007"
   transform="scale(0.00048828125,-0.00048828125)">
   <path
   d="M 0,-2 C -7,14 -16,27 -25,37 L 356,567 C 262,823 215,952 215,954 215,979 228,992 255,992 264,992 276,990 289,987 310,991 331,999 354,1012 L 381,999 492,748 772,1049 836,1024 860,1049 C 881,1039 901,1025 922,1006 886,937 835,863 770,784 769,783 710,716 594,584 L 774,223 C 774,196 753,168 711,139 L 727,119 C 717,90 699,76 672,76 641,76 570,178 457,381 L 164,-76 C 142,-110 111,-127 72,-127 30,-127 9,-110 8,-76 1,-67 -2,-52 -2,-32 -2,-23 -1,-13 0,-2 Z"
   id="path26" />
  </g>
  <g
   id="bullet-char-template-10004"
   transform="scale(0.00048828125,-0.00048828125)">
   <path
   d="M 285,-33 C 182,-33 111,30 74,156 52,228 41,333 41,471 41,549 55,616 82,672 116,743 169,778 240,778 293,778 328,747 346,684 L 369,508 C 377,444 397,411 428,410 L 1163,1116 C 1174,1127 1196,1133 1229,1133 1271,1133 1292,1118 1292,1087 L 1292,965 C 1292,929 1282,901 1262,881 L 442,47 C 390,-6 338,-33 285,-33 Z"
   id="path29" />
  </g>
  <g
   id="bullet-char-template-9679"
   transform="scale(0.00048828125,-0.00048828125)">
   <path
   d="M 813,0 C 632,0 489,54 383,161 276,268 223,411 223,592 223,773 276,916 383,1023 489,1130 632,1184 813,1184 992,1184 1136,1130 1245,1023 1353,916 1407,772 1407,592 1407,412 1353,268 1245,161 1136,54 992,0 813,0 Z"
   id="path32" />
  </g>
  <g
   id="bullet-char-template-8226"
   transform="scale(0.00048828125,-0.00048828125)">
   <path
   d="M 346,457 C 273,457 209,483 155,535 101,586 74,649 74,723 74,796 101,859 155,911 209,963 273,989 346,989 419,989 480,963 531,910 582,859 608,796 608,723 608,648 583,586 532,535 482,483 420,457 346,457 Z"
   id="path35" />
  </g>
  <g
   id="bullet-char-template-8211"
   transform="scale(0.00048828125,-0.00048828125)">
   <path
   d="M -4,459 L 1135,459 1135,606 -4,606 -4,459 Z"
   id="path38" />
  </g>
  <g
   id="bullet-char-template-61548"
   transform="scale(0.00048828125,-0.00048828125)">
   <path
   d="M 173,740 C 173,903 231,1043 346,1159 462,1274 601,1332 765,1332 928,1332 1067,1274 1183,1159 1299,1043 1357,903 1357,740 1357,577 1299,437 1183,322 1067,206 928,148 765,148 601,148 462,206 346,322 231,437 173,577 173,740 Z"
   id="path41" />
  </g>
 </defs>
 <g
   id="g49">
  <g
   id="id2"
   class="Master_Slide">
   <g
   id="bg-id2"
   class="Background" />
   <g
   id="bo-id2"
   class="BackgroundObjects" />
  </g>
 </g>
 
<path
   id="path1263"
   style="fill:#7ce0fc;fill-opacity:0.548195;stroke:#474747;stroke-width:4.3067;stroke-opacity:0.718039"
   d="M 377.95312 2.1542969 A 375.79934 375.79934 0 0 0 2.1542969 377.95508 A 375.79934 375.79934 0 0 0 377.95312 753.75195 A 375.79934 375.79934 0 0 0 753.75195 377.95508 A 375.79934 375.79934 0 0 0 377.95312 2.1542969 z M 543.30664 76.433594 A 15.11811 15.11811 0 0 1 550.86719 78.460938 A 15.11811 15.11811 0 0 1 556.40039 99.111328 A 15.11811 15.11811 0 0 1 535.74805 104.64258 A 15.11811 15.11811 0 0 1 530.21484 83.992188 A 15.11811 15.11811 0 0 1 543.30664 76.433594 z M 377.95312 152.47266 A 225.47964 225.47964 0 0 1 603.43359 377.95508 A 225.47964 225.47964 0 0 1 377.95312 603.43359 A 225.47964 225.47964 0 0 1 152.47266 377.95508 A 225.47964 225.47964 0 0 1 377.95312 152.47266 z M 47.244141 362.83594 A 15.11811 15.11811 0 0 1 62.363281 377.95508 A 15.11811 15.11811 0 0 1 47.244141 393.07227 A 15.11811 15.11811 0 0 1 32.126953 377.95508 A 15.11811 15.11811 0 0 1 47.244141 362.83594 z M 543.30664 649.23828 A 15.11811 15.11811 0 0 1 556.40039 656.79688 A 15.11811 15.11811 0 0 1 550.86719 677.44727 A 15.11811 15.11811 0 0 1 530.21484 671.91406 A 15.11811 15.11811 0 0 1 535.74805 651.26367 A 15.11811 15.11811 0 0 1 543.30664 649.23828 z "
   transform="scale(26.458333)" /></svg>

<?xml version="1.0" encoding="UTF-8" standalone="no"?>
<svg
   version="1.2"
   width="210mm"
   height="297mm"
   viewBox="0 0 21000 29700"
   preserveAspectRatio="xMidYMid"
   fill-rule="evenodd"
   stroke-width="28.222"
   stroke-linejoin="round"
   xml:space="preserve"
   id="svg76"
   sodipodi:docname="MirrorCell.svg"
   inkscape:version="1.1.2 (0a00cf5339, 2022-02-04)"
   xmlns:inkscape="http://www.inkscape.org/namespaces/inkscape"
   xmlns:sodipodi="http://sodipodi.sourceforge.net/DTD/sodipodi-0.dtd"
   xmlns="http://www.w3.org/2000/svg"
   xmlns:svg="http://www.w3.org/2000/svg"
   xmlns:ooo="http://xml.openoffice.org/svg/export"><sodipodi:namedview
   id="namedview78"
   pagecolor="#ffffff"
   bordercolor="#cccccc"
   borderopacity="1"
   inkscape:pageshadow="0"
   inkscape:pageopacity="1"
   inkscape:pagecheckerboard="0"
   inkscape:document-units="mm"
   showgrid="false"
   inkscape:zoom="0.53105655"
   inkscape:cx="326.7072"
   inkscape:cy="657.18048"
   inkscape:window-width="1920"
   inkscape:window-height="1022"
   inkscape:window-x="0"
   inkscape:window-y="0"
   inkscape:window-maximized="1"
   inkscape:current-layer="svg76" />
 <defs
   class="ClipPathGroup"
   id="defs8">
  <clipPath
   id="presentation_clip_path"
   clipPathUnits="userSpaceOnUse">
   <rect
   x="0"
   y="0"
   width="29700"
   height="42000"
   id="rect2" />
  </clipPath>
  <clipPath
   id="presentation_clip_path_shrink"
   clipPathUnits="userSpaceOnUse">
   <rect
   x="29"
   y="42"
   width="29641"
   height="41916"
   id="rect5" />
  </clipPath>
 </defs>
 <defs
   class="TextShapeIndex"
   id="defs12">
  <g
   ooo:slide="id1"
   ooo:id-list="id3"
   id="g10" />
 </defs>
 <defs
   class="EmbeddedBulletChars"
   id="defs44">
  <g
   id="bullet-char-template-57356"
   transform="matrix(4.8828125e-4,0,0,-4.8828125e-4,0,0)">
   <path
   d="M 580,1141 1163,571 580,0 -4,571 Z"
   id="path14" />
  </g>
  <g
   id="bullet-char-template-57354"
   transform="matrix(4.8828125e-4,0,0,-4.8828125e-4,0,0)">
   <path
   d="M 8,1128 H 1137 V 0 H 8 Z"
   id="path17" />
  </g>
  <g
   id="bullet-char-template-10146"
   transform="matrix(4.8828125e-4,0,0,-4.8828125e-4,0,0)">
   <path
   d="M 174,0 602,739 174,1481 1456,739 Z M 1358,739 309,1346 659,739 Z"
   id="path20" />
  </g>
  <g
   id="bullet-char-template-10132"
   transform="matrix(4.8828125e-4,0,0,-4.8828125e-4,0,0)">
   <path
   d="M 2015,739 1276,0 H 717 l 543,543 H 174 v 393 h 1086 l -543,545 h 557 z"
   id="path23" />
  </g>
  <g
   id="bullet-char-template-10007"
   transform="matrix(4.8828125e-4,0,0,-4.8828125e-4,0,0)">
   <path
   d="m 0,-2 c -7,16 -16,29 -25,39 l 381,530 c -94,256 -141,385 -141,387 0,25 13,38 40,38 9,0 21,-2 34,-5 21,4 42,12 65,25 l 27,-13 111,-251 280,301 64,-25 24,25 c 21,-10 41,-24 62,-43 C 886,937 835,863 770,784 769,783 710,716 594,584 L 774,223 c 0,-27 -21,-55 -63,-84 l 16,-20 C 717,90 699,76 672,76 641,76 570,178 457,381 L 164,-76 c -22,-34 -53,-51 -92,-51 -42,0 -63,17 -64,51 -7,9 -10,24 -10,44 0,9 1,19 2,30 z"
   id="path26" />
  </g>
  <g
   id="bullet-char-template-10004"
   transform="matrix(4.8828125e-4,0,0,-4.8828125e-4,0,0)">
   <path
   d="M 285,-33 C 182,-33 111,30 74,156 52,228 41,333 41,471 c 0,78 14,145 41,201 34,71 87,106 158,106 53,0 88,-31 106,-94 l 23,-176 c 8,-64 28,-97 59,-98 l 735,706 c 11,11 33,17 66,17 42,0 63,-15 63,-46 V 965 c 0,-36 -10,-64 -30,-84 L 442,47 C 390,-6 338,-33 285,-33 Z"
   id="path29" />
  </g>
  <g
   id="bullet-char-template-9679"
   transform="matrix(4.8828125e-4,0,0,-4.8828125e-4,0,0)">
   <path
   d="M 813,0 C 632,0 489,54 383,161 276,268 223,411 223,592 c 0,181 53,324 160,431 106,107 249,161 430,161 179,0 323,-54 432,-161 108,-107 162,-251 162,-431 0,-180 -54,-324 -162,-431 C 1136,54 992,0 813,0 Z"
   id="path32" />
  </g>
  <g
   id="bullet-char-template-8226"
   transform="matrix(4.8828125e-4,0,0,-4.8828125e-4,0,0)">
   <path
   d="m 346,457 c -73,0 -137,26 -191,78 -54,51 -81,114 -81,188 0,73 27,136 81,188 54,52 118,78 191,78 73,0 134,-26 185,-79 51,-51 77,-114 77,-187 0,-75 -25,-137 -76,-188 -50,-52 -112,-78 -186,-78 z"
   id="path35" />
  </g>
  <g
   id="bullet-char-template-8211"
   transform="matrix(4.8828125e-4,0,0,-4.8828125e-4,0,0)">
   <path
   d="M -4,459 H 1135 V 606 H -4 Z"
   id="path38" />
  </g>
  <g
   id="bullet-char-template-61548"
   transform="matrix(4.8828125e-4,0,0,-4.8828125e-4,0,0)">
   <path
   d="m 173,740 c 0,163 58,303 173,419 116,115 255,173 419,173 163,0 302,-58 418,-173 116,-116 174,-256 174,-419 0,-163 -58,-303 -174,-418 C 1067,206 928,148 765,148 601,148 462,206 346,322 231,437 173,577 173,740 Z"
   id="path41" />
  </g>
 </defs>
 <g
   id="g49">
  <g
   id="id2"
   class="Master_Slide">
   <g
   id="bg-id2"
   class="Background" />
   <g
   id="bo-id2"
   class="BackgroundObjects" />
  </g>
 </g>
 
<g
   id="g4898"
   transform="translate(-3920.2192,-9547.0868)"><path
     id="path1263"
     style="fill:#7ce0fc;fill-opacity:0.548195;stroke:#474747;stroke-width:113.948;stroke-opacity:0.718039"
     d="M 14850,10533.857 A 9943.0241,9943.0241 0 0 0 4906.9893,20476.919 9943.0241,9943.0241 0 0 0 14850,30419.878 9943.0241,9943.0241 0 0 0 24793.011,20476.919 9943.0241,9943.0241 0 0 0 14850,10533.857 Z m 4374.978,1965.306 a 399.99999,399.99999 0 0 1 200.04,53.64 399.99999,399.99999 0 0 1 146.399,546.375 399.99999,399.99999 0 0 1 -546.426,146.349 399.99999,399.99999 0 0 1 -146.4,-546.375 399.99999,399.99999 0 0 1 346.387,-199.989 z M 14850,14511.031 A 5965.8154,5965.8154 0 0 1 20815.837,20476.919 5965.8154,5965.8154 0 0 1 14850,26442.705 5965.8154,5965.8154 0 0 1 8884.1627,20476.919 5965.8154,5965.8154 0 0 1 14850,14511.031 Z m -8750.0085,5565.862 a 399.99999,399.99999 0 0 1 400.0272,400.026 399.99999,399.99999 0 0 1 -400.0272,399.976 399.99999,399.99999 0 0 1 -399.9756,-399.976 399.99999,399.99999 0 0 1 399.9756,-400.026 z m 13124.9865,7577.728 a 399.99999,399.99999 0 0 1 346.439,199.989 399.99999,399.99999 0 0 1 -146.399,546.374 399.99999,399.99999 0 0 1 -546.427,-146.4 399.99999,399.99999 0 0 1 146.4,-546.375 399.99999,399.99999 0 0 1 199.987,-53.588 z" /><circle
     style="fill:none;fill-opacity:0.548195;stroke:#474747;stroke-width:50;stroke-miterlimit:4;stroke-dasharray:200, 200;stroke-dashoffset:0;stroke-opacity:0.718039"
     id="path1137"
     cx="14849.985"
     cy="20476.691"
     r="7200" /><path
     style="fill:none;stroke:#000000;stroke-width:50;stroke-linecap:butt;stroke-linejoin:miter;stroke-miterlimit:4;stroke-dasharray:300, 300;stroke-dashoffset:0;stroke-opacity:1"
     d="M 3920.2192,20476.868 H 25779.781"
     id="path1414" /><path
     style="fill:none;stroke:#000000;stroke-width:50;stroke-linecap:butt;stroke-linejoin:miter;stroke-miterlimit:4;stroke-dasharray:300, 300;stroke-dashoffset:0;stroke-opacity:1"
     d="M 20314.891,29942.336 9385.1096,11011.4"
     id="path1414-9" /><path
     style="fill:none;stroke:#000000;stroke-width:50;stroke-linecap:butt;stroke-linejoin:miter;stroke-miterlimit:4;stroke-dasharray:300, 300;stroke-dashoffset:0;stroke-opacity:1"
     d="M 24315.468,15011.978 5384.5321,25941.758"
     id="path1414-8" /><ellipse
     style="fill:none;fill-opacity:0.548195;stroke:#474747;stroke-width:61.0706;stroke-miterlimit:4;stroke-dasharray:244.282, 244.282;stroke-dashoffset:0;stroke-opacity:0.718039"
     id="path1137-4"
     cx="14849.98"
     cy="20476.658"
     rx="8719.4834"
     ry="8869.4707" /><path
     style="fill:none;stroke:#606060;stroke-width:50;stroke-linecap:butt;stroke-linejoin:miter;stroke-miterlimit:4;stroke-dasharray:300, 300;stroke-dashoffset:0;stroke-opacity:1"
     d="M 14850,31406.649 V 9547.0868"
     id="path1414-8-8" /><circle
     style="fill:none;fill-opacity:0.548195;stroke:#474747;stroke-width:49.9999;stroke-miterlimit:4;stroke-dasharray:300, 300;stroke-dashoffset:0;stroke-opacity:0.718039"
     id="path1639"
     cx="8632.9473"
     cy="24080.275"
     r="600" /><circle
     style="fill:none;fill-opacity:0.548195;stroke:#474747;stroke-width:49.9999;stroke-miterlimit:4;stroke-dasharray:300, 300;stroke-dashoffset:0;stroke-opacity:0.718039"
     id="path1639-0"
     cx="21033.949"
     cy="23981.281"
     r="600" /><circle
     style="fill:none;fill-opacity:0.548195;stroke:#474747;stroke-width:49.9999;stroke-miterlimit:4;stroke-dasharray:300, 300;stroke-dashoffset:0;stroke-opacity:0.718039"
     id="path1639-3"
     cx="14860.749"
     cy="13304.579"
     r="600" /><path
     style="fill:none;stroke:#000000;stroke-width:50;stroke-linecap:butt;stroke-linejoin:miter;stroke-miterlimit:4;stroke-dasharray:300, 300;stroke-dashoffset:0;stroke-opacity:1"
     d="M 20314.89,11011.4 9385.1095,29942.336"
     id="path1414-0" /><path
     style="fill:none;stroke:#606060;stroke-width:50;stroke-linecap:butt;stroke-linejoin:miter;stroke-miterlimit:4;stroke-dasharray:300, 300;stroke-dashoffset:0;stroke-opacity:1"
     d="M 5384.5318,15011.977 24315.468,25941.759"
     id="path1414-4" /></g></svg>
